d1 $ sound "feel:6 feel:5*8? feel:3 feel:1" # room 0.9 # slow 4 (speed (range 8 0.5 saw))
d2 $ sound "casio:1*16" # up "-6" # room 0.9 # slow 4 (speed (range 1 1.5 saw )) # gain (range (0.5 |*| (cF 1 "section2_gain")) (1 |*| (cF 1 "section2_gain")) rand)
d3 $ sound "<~ bd:3*8?> bd:3? sn:2? [~ bd:3?]" # room 0.9 # speed (range 8 1 saw)
d4 $ sound "[<feel:6? [~ feel:6]> <feel:3 feel:4>, feel:1*16?]" # room 0.9 # size 0.9 # gain (cF 1.1 "section1_gain")

hush
